!!!!SEGMENT: pl-sa--190-a-v-20--001-001_pych-leopold--missa-in-d-sinfonia.krn
!!!cenid: 17xx:1573
!!!COM: Pych, Leopold
!!!COM-rismID: pe30018039
!!!CDT: <1758->1774
!!!CNT:
!!!OPR: Missa in D
!!!OTL: Sinfonia
!!!OMV: 001
!!!PDT:
!!!AGN: Sacred; Mass
!!!YEC: Copyright 2022 Narodowy Instytut Fryderyka Chopina (https://polishscores.org)
!!!YEM: License CC-BY-4.0 (https://creativecommons.org/licenses/by/4.0)
!!!SMS-siglum: PL-SA
!!!SMS-shelfmark: 190/A V 20
!!!SMS-shelfwork: 001-001 M
!!!SMS-variant:
!!!SMS-altvar:
!!!NIFC-rismSourceID: 1001035913
!!!NIFC-rismChildID: 1001035913
!!!NIFC-islandoraID: none
!!!URL-pdf-islandora:
!!!URL-scan: https://bc.bdsandomierz.pl/dlibra/publication/1527/edition/1495/content @EN{Scan in the Sandomierz Diocese Digital Library} @PL{Skany w portalu Cyfrowa Biblioteka Diecezjalna w Sandomierzu}
!!!IIIF:
!!!ONB-nifc: UWAGA: części Mszy: 1. Sinfonia, 2. Kyrie, 3. Gloria, 4. Credo, 5. Sanctus, 6. Osanna, 7. Benedictus, 8. Agnus Dei, 9. Dona nobis
!!!OMD: allegro
!!!AIN: 1 alto 1 bass 2 cor 1 organ 1 tenor 2 violn
!!!key: D
**kern	**fba	**dynam	**kern	**dynam	**kern	**dynam	**kern	**kern	**kern	**kern	**kern	**dynam	**kern
*part9	*	*	*part8	*	*part7	*	*part6	*part5	*part4	*part3	*part2	*	*part1
*staff9	*	*	*staff8	*	*staff7	*	*staff6	*staff5	*staff4	*staff3	*staff2	*	*staff1
*I"Fundamento	*	*	*I"Violino 2do:	*	*I"Violino Primo:	*	*I"Baſso	*I"Tenore.	*I"Alto	*I"Canto	*I"Cornu 2do ex D.	*	*I"Cornu Primo ex D#
*mI"Organo	*	*	*mI"Violino II	*	*mI"Violino I 	*	*mI"Basso	*mI"Tenore	*	*mI"Soprano	*mI"Cornu II in D	*	*mI"Cornu I in D
*I'b (=bc.fig)	*	*	*I'vn 2	*	*I'vn 1	*	*I'B	*I'T	*I'A	*I'S	*I'cor 2	*	*I'cor 1
*I'org	*	*	*mI'vn II	*	*mI'vn I	*	*	*	*	*	*	*	*
*Iorgan	*	*	*Ivioln	*	*Ivioln	*	*Ibass	*Itenor	*Ialto	*	*Icor	*	*Icor
*ICklav	*	*	*ICstr	*	*ICstr	*	*ICvox	*ICvox	*ICvox	*	*ICbras	*	*ICbras
*IGcont	*	*	*IGripn	*	*IGripn	*	*IGcoro	*IGcoro	*IGcoro	*	*IGripn	*	*IGripn
*clefF4	*	*	*clefG2	*	*clefG2	*	*clefF4	*clefC4	*clefC3	*clefG2	*clefG2	*	*clefG2
*	*	*	*	*	*	*	*	*mclefGv2	*mclefG2	*	*	*	*
*	*	*	*	*	*	*	*	*	*	*	*ITrd-1c-2	*	*ITrd-1c-2
*k[f#c#]	*	*	*k[f#c#]	*	*k[f#c#]	*	*k[f#c#]	*k[f#c#]	*k[f#c#]	*k[f#c#]	*k[f#c#]	*	*k[f#c#]
*D:	*	*	*D:	*	*D:	*	*D:	*D:	*D:	*D:	*D:	*	*D:
*M4/4	*	*	*M4/4	*	*M4/4	*	*M4/4	*M4/4	*M4/4	*M4/4	*M4/4	*	*M4/4
*met(c)	*	*	*met(c)	*	*met(c)	*	*met(c)	*met(c)	*met(c)	*met(c)	*met(c)	*	*met(c)
*	*	*	*all\right	*	*all\right	*	*	*	*	*	*all\right	*	*all\right
=1	=1	=1	=1	=1	=1	=1	=1	=1	=1	=1	=1	=1	=1
!!!OMD:
!!!OMD-mod: Sinfonia \nAllegro
!LO:TX:a:t=Sinfonia allegro.:mod=	!	!	!LO:TX:a:t=Simfonia allo:mod=	!	!LO:TX:a:t=Simfonia allegro:mod=	!	!LO:TX:a:t=Tacet	!LO:TX:a:t=Tacet	!LO:TX:a:t=Tacet	!LO:TX:t=P:problem=brak partii Canto	!LO:TX:a:t=Sinfonia allo:mod=	!	!LO:TX:a:t=Sinfonia allo:mod=
4D\	.	.	4d/ 4ff# 4ddd	.	4d/ 4ff# 4ddd	.	1ryy	1ryy	1ryy	1ryy	4dd\	.	4ff#\
4r	.	.	16aa\LL	.	16aa\LL	.	.	.	.	.	4r	.	16aa\LL
.	.	.	16gg\	.	16gg\	.	.	.	.	.	.	.	16gg\
.	.	.	16ff#\	.	16ff#\	.	.	.	.	.	.	.	16ff#\
.	.	.	16ee\JJ	.	16ee\JJ	.	.	.	.	.	.	.	16ee\JJ
4d\	.	.	4dd\	.	4dd\	.	.	.	.	.	4dd\	.	4dd\
16A|>\LL	.	.	16a/LL	.	16a/LL	.	.	.	.	.	8.a/L	.	8a/L
16G|>\	.	.	16g/	.	16g/	.	.	.	.	.	.	.	.
16F#|>\	.	.	16f#/	.	16f#/	.	.	.	.	.	.	.	8f#/J
16E|>\JJ	.	.	16e/JJ	.	16e/JJ	.	.	.	.	.	16f#/Jk	.	.
=2	=2	=2	=2	=2	=2	=2	=2	=2	=2	=2	=2	=2	=2
!	!	!	!LO:TX:t=P:problem=mixed beam	!	!LO:TX:t=P:problem=mixed beam	!	!	!	!	!	!	!	!
8D\L	.	.	8d/L	.	8d/L	.	1ryy	1ryy	1ryy	1ryy	4d/	.	4d/
8D\	.	.	8ff#\J	.	8ff#\J	.	.	.	.	.	.	.	.
8F#\	.	.	8aa\L	.	8aa\L	.	.	.	.	.	8r	.	8r
8D\J	.	.	8ddd\J	.	8ddd\J	.	.	.	.	.	8dd\	.	8ff#\
!LO:TX:t=P:problem=mixed beam	!	!	!	!	!	!	!	!	!	!	!	!	!
8AA/L	.	.	16ccc#\LL	.	16ccc#\LL	.	.	.	.	.	8.a/L	.	8ee\L
.	.	.	16bb\JJ	.	16bb\JJ	.	.	.	.	.	.	.	.
.	.	.	.	.	8qqbb/	.	.	.	.	.	.	.	.
16A\L	3_	.	4.aa\	.	4.aa\	.	.	.	.	.	.	.	16ee\L
16G\JJ	x	.	.	.	.	.	.	.	.	.	16a/Jk	.	16ee\JJ
8F#\L	.	.	.	.	.	.	.	.	.	.	8ff#\L	.	8ff#\L
8D\J	.	.	.	.	.	.	.	.	.	.	8ff#\J	.	8aa\J
=3	=3	=3	=3	=3	=3	=3	=3	=3	=3	=3	=3	=3	=3
8G\L	.	.	16bb\LL	.	16bb\LL	.	1ryy	1ryy	1ryy	1ryy	8gg\	.	8bb\
.	.	.	16gg\JJ	.	16gg\JJ	.	.	.	.	.	.	.	.
.	.	.	8qqff#/	.	(<8qqff#/	.	.	.	.	.	.	.	.
8G\	.	.	4.ee\	.	4.ee\)	.	.	.	.	.	8r	.	8r
8G\	.	.	.	.	.	.	.	.	.	.	4r	.	4r
8G\J	.	.	.	.	.	.	.	.	.	.	.	.	.
8r	.	.	16aa\LL	.	16aa\LL	.	.	.	.	.	8ff#\	.	8aa\
.	.	.	16ff#\JJ	.	16ff#\JJ	.	.	.	.	.	.	.	.
.	.	.	8qqee/	.	(<8qqee/	.	.	.	.	.	.	.	.
8F#\L	6	.	4.dd\	.	4.dd\)	.	.	.	.	.	8r	.	8r
8F#\	.	.	.	.	.	.	.	.	.	.	4r	.	4r
16F#\L	.	.	.	.	.	.	.	.	.	.	.	.	.
16F#\JJ	.	.	.	.	.	.	.	.	.	.	.	.	.
=4	=4	=4	=4	=4	=4	=4	=4	=4	=4	=4	=4	=4	=4
!LO:TX:t=P:problem=mixed beam	!	!	!	!	!	!	!	!	!	!	!	!	!
8E\L	6	.	16cc#\LL	.	16cc#\LL	.	1ryy	1ryy	1ryy	1ryy	8r	.	8r
.	.	.	16b\	.	16dd\	.	.	.	.	.	.	.	.
8AA/	2_	.	16cc#\	.	16ee\	.	.	.	.	.	8ee\L	.	8gg\L
.	.	.	16dd\JJ	.	16ff#\JJ	.	.	.	.	.	.	.	.
8C#/	.	.	8ee\L	.	8gg\L	.	.	.	.	.	8ee\	.	8gg\
8AA/J	.	.	8ee\J	.	8gg\J	.	.	.	.	.	8ee\J	.	8gg\J
.	.	.	8qqff#/	.	.	.	.	.	.	.	.	.	.
8D\L	9 4	.	8ee\L	.	8ggM\L	.	.	.	.	.	8ee\L	.	8ggM\L
8D\	8 3	.	8dd\J	.	8ff#\J	.	.	.	.	.	8dd\J	.	8ff#\J
8F#\	.	.	4r	.	4r	.	.	.	.	.	4r	.	4r
8D\J	.	.	.	.	.	.	.	.	.	.	.	.	.
!	!	!	!	!	!LO:LB:g=original	!	!	!	!	!	!	!	!
=5	=5	=5	=5	=5	=5	=5	=5	=5	=5	=5	=5	=5	=5
!	!	!	!	!	!	!LO:DY:a:t=pia	!	!	!	!	!LO:TX:a:t=1:mod=	!	!LO:TX:a:t=1:mod=
8r	.	.	8r	.	(<16b/LL	p	1ryy	1ryy	1ryy	1ryy	1r	.	1r
.	.	.	.	.	16g/JJ)	.	.	.	.	.	.	.	.
.	.	.	.	.	(<8qqf#/	.	.	.	.	.	.	.	.
!	!	!LO:DY:a	!	!	!	!	!	!	!	!	!	!	!
8G\L	.	p	8B/L	.	4.e/)	.	.	.	.	.	.	.	.
8G\	.	.	8B/	.	.	.	.	.	.	.	.	.	.
8G\J	.	.	8B/J	.	.	.	.	.	.	.	.	.	.
!	!	!	!LO:LB:g=original	!	!	!	!	!	!	!	!	!	!
=-	=-	=-	=-	=-	=-	=-	=-	=-	=-	=-	=-	=-	=-
8r	.	.	8r	.	(<16a/LL	.	.	.	.	.	.	.	.
.	.	.	.	.	16f#/JJ)	.	.	.	.	.	.	.	.
.	.	.	.	.	(<8qqe/	.	.	.	.	.	.	.	.
8F#\L	6	.	8A/L	.	4.d/)	.	.	.	.	.	.	.	.
8F#\	.	.	8A/	.	.	.	.	.	.	.	.	.	.
8F#\J	.	.	8A/J	.	.	.	.	.	.	.	.	.	.
!LO:LB:g=original	!	!	!	!	!	!	!	!	!	!	!	!	!
=6	=6	=6	=6	=6	=6	=6	=6	=6	=6	=6	=6	=6	=6
4E\	3	.	16c#/LL	.	16c#/LL	.	1ryy	1ryy	1ryy	1ryy	2r	.	2r
.	.	.	16B/	.	16d/	.	.	.	.	.	.	.	.
.	.	.	16c#/	.	16e/	.	.	.	.	.	.	.	.
!	!	!	!	!	!	!LO:DY:a:t=for	!	!	!	!	!	!	!
.	.	.	16d/JJ	.	16f#/JJ	f	.	.	.	.	.	.	.
!	!	!LO:DY:a:t=for	!	!	!	!	!	!	!	!	!	!	!
4AA/	.	f	8e/L	.	8g/L	.	.	.	.	.	.	.	.
.	.	.	8e/J	.	8g/J	.	.	.	.	.	.	.	.
!LO:TX:t=P:problem=mixed beam	!	!	!	!	!	!	!	!	!	!	!	!	!
16D/LL	.	.	8d/	.	8f#/	.	.	.	.	.	8r	.	8r
16d\	.	.	.	.	.	.	.	.	.	.	.	.	.
!	!	!	!	!	!	!	!	!	!	!	!	!LO:DY:b:t=for	!
16c#\	.	.	4f#/	.	4dd\	.	.	.	.	.	8dd\L	f	8ff#\L
16B\JJ	.	.	.	.	.	.	.	.	.	.	.	.	.
16A\LL	.	.	.	.	.	.	.	.	.	.	8dd\	.	8ff#\
16B\	.	.	.	.	.	.	.	.	.	.	.	.	.
16A\	.	.	[8f#/	.	[<8dd\	.	.	.	.	.	8dd\J	.	8ff#\J
16G\JJ	.	.	.	.	.	.	.	.	.	.	.	.	.
!	!	!	!	!	!	!	!	!	!	!	!LO:LB:g=original	!	!LO:LB:g=original
=7	=7	=7	=7	=7	=7	=7	=7	=7	=7	=7	=7	=7	=7
!	!	!	!LO:TX:t=P:problem=mixed beam	!	!	!	!	!	!	!	!	!	!
4F#\	6	.	16f#/LL]	.	8dd\L]	.	1ryy	1ryy	1ryy	1ryy	4dd\	.	4ff#\
.	.	.	16dd\	.	.	.	.	.	.	.	.	.	.
.	.	.	16ee\	.	16ee\L	.	.	.	.	.	.	.	.
.	.	.	16ff#\JJ	.	16ff#\JJ	.	.	.	.	.	.	.	.
4E\	6	.	16gg\LL	.	16gg\LL	.	.	.	.	.	4eeM\	.	4gg\
.	.	.	16aa\	.	16aa\	.	.	.	.	.	.	.	.
.	.	.	16bb\	.	16bb\	.	.	.	.	.	.	.	.
.	.	.	16ccc#\JJ	.	16ccc#\JJ	.	.	.	.	.	.	.	.
4D\	.	.	8ddd\L	.	8ddd|>\L	.	.	.	.	.	4ff#\	.	4aa\
.	.	.	(>8ff#\	.	(8aa\	.	.	.	.	.	.	.	.
8r	.	.	8ee\	.	8gg\	.	.	.	.	.	4r	.	4r
8d\	.	.	8dd\J)	.	8ff#\J)	.	.	.	.	.	.	.	.
=8	=8	=8	=8	=8	=8	=8	=8	=8	=8	=8	=8	=8	=8
4D/	.	.	8ddd\L	.	8ddd|>\L	.	1ryy	1ryy	1ryy	1ryy	4gg\	.	4.bb\
.	.	.	(>8gg\	.	(8bb\	.	.	.	.	.	.	.	.
4r	.	.	8ff#\	.	8aa\	.	.	.	.	.	4r	.	.
.	.	.	8ee\J)	.	8gg\J)	.	.	.	.	.	.	.	8r
4D/	6	.	8bb\L	.	8ddd|>\L	.	.	.	.	.	8ff#\L	.	8aa\L
.	.	.	(>8ff#\	.	(8aa\	.	.	.	.	.	(8ff#\	.	(8aa\
4GG/	5	.	8ee\	.	8gg\	.	.	.	.	.	8ee\	.	8gg\
.	.	.	8dd\J)	.	8ff#\J)	.	.	.	.	.	8dd\J)	.	8ff#\J)
!	!	!	!	!	!LO:LB:g=original	!	!	!	!	!	!	!	!
=9	=9	=9	=9	=9	=9	=9	=9	=9	=9	=9	=9	=9	=9
!LO:TX:t=P:problem=mixed beam	!	!	!	!	!	!	!	!	!	!	!	!	!
.	.	.	(<8qqee/	.	.	.	.	.	.	.	.	.	.
8AA/L	6 4	.	8dd\L)	.	8ff#m\L	.	1ryy	1ryy	1ryy	1ryy	8dd/L	.	8ff#\L
8A\	5 3	.	8cc#\J	.	8ee\J	.	.	.	.	.	16a/L	.	16ee\L
.	.	.	.	.	.	.	.	.	.	.	16a/JJ	.	16ee\JJ
8c#\	.	.	4r	.	4r	.	.	.	.	.	8a/L	.	4ee\
8A\J	.	.	.	.	.	.	.	.	.	.	8a/J	.	.
4d\	.	.	4d/ 4a 4ff#	.	4d/ 4a 4ff#	.	.	.	.	.	4dd\	.	4ff#\
4r	.	.	16aa\LL	.	16aa\LL	.	.	.	.	.	4r	.	4r
.	.	.	16gg\	.	16gg\	.	.	.	.	.	.	.	.
.	.	.	16ff#\	.	16ff#\	.	.	.	.	.	.	.	.
.	.	.	16ee\JJ	.	16ee\JJ	.	.	.	.	.	.	.	.
=10	=10	=10	=10	=10	=10	=10	=10	=10	=10	=10	=10	=10	=10
4d|>\	.	.	4dd\	.	4dd\	.	1ryy	1ryy	1ryy	1ryy	4dd\	.	4ff#\
16A|>\LL	.	.	16a/LL	.	16a/LL	.	.	.	.	.	4r	.	4r
16G|>\	.	.	16g/	.	16g/	.	.	.	.	.	.	.	.
16F#|>\	.	.	16f#/	.	16f#/	.	.	.	.	.	.	.	.
16E|>\JJ	.	.	16e/JJ	.	16e/JJ	.	.	.	.	.	.	.	.
!	!	!	!LO:LB:g=original	!	!	!	!	!	!	!	!	!	!
=-	=-	=-	=-	=-	=-	=-	=-	=-	=-	=-	=-	=-	=-
!	!	!	!LO:TX:t=P:problem=mixed beam	!	!LO:TX:t=P:problem=mixed beam	!	!	!	!	!	!	!	!
8D\L	.	.	8d/L	.	8d/L	.	.	.	.	.	8r	.	4ee\
8d\	3_	.	8dd\	.	8dd\	.	.	.	.	.	8ff#\L	.	.
8d\	.	.	8ff#\	.	8ff#\	.	.	.	.	.	8ff#\	.	8aa\L
8d\J	.	.	8aa\J	.	8aa\J	.	.	.	.	.	8ff#\J	.	8aa\J
=11	=11	=11	=11	=11	=11	=11	=11	=11	=11	=11	=11	=11	=11
8d\L	.	.	4e/ 4b 4gg#X	.	4e/ 4b 4gg#X	.	1ryy	1ryy	1ryy	1ryy	4ee\	.	4gg#X\
8d\	.	.	.	.	.	.	.	.	.	.	.	.	.
8d\	x	.	16bb\LL	.	16bb\LL	.	.	.	.	.	4r	.	4r
.	.	.	16aa\	.	16aa\	.	.	.	.	.	.	.	.
8d\J	.	.	16gg#X\	.	16gg#X\	.	.	.	.	.	.	.	.
.	.	.	16ff#\JJ	.	16ff#\JJ	.	.	.	.	.	.	.	.
8d\L	.	.	8ee\L	.	8ee\L	.	.	.	.	.	8r	.	8r
8B\	.	.	8bb\	.	8aa\	.	.	.	.	.	16ee\LL	.	16gg#X\LL
.	.	.	.	.	.	.	.	.	.	.	16ee\JJ	.	16gg#\JJ
8G#X\	.	.	8bb\	.	8bb\	.	.	.	.	.	8ee\L	.	8gg#\L
8E\J	.	.	8ddd\J	.	8ddd\J	.	.	.	.	.	[8ee\J	.	8gg#\J
!LO:LB:g=original	!	!	!	!	!	!	!	!	!	!	!	!	!
=12	=12	=12	=12	=12	=12	=12	=12	=12	=12	=12	=12	=12	=12
*	*	*	*^	*	*	*	*	*	*	*	*	*	*
8A\L	6:	.	8ccc#\	2ryy	.	8ccc#\	.	1ryy	1ryy	1ryy	1ryy	8ee\]	.	4aa\
8D\	.	.	4bb\	.	.	4bb\	.	.	.	.	.	4dd\	.	.
8D\	5	.	.	.	.	.	.	.	.	.	.	.	.	4ff#m\
8D#X\J	.	.	8aa\	.	.	8aa\	.	.	.	.	.	8ff#\	.	.
!	!	!	!LO:TX:t=P:problem=mixed beam	!	!	!	!	!	!	!	!	!	!	!
8E\L	#	.	8gg#X\L	8ryy	.	16gg#X|>\LL	.	.	.	.	.	4ee\	.	4ee\
.	.	.	.	.	.	(16ee\	.	.	.	.	.	.	.	.
8E\	.	.	8b/	8g#X\L	.	16dd#X\	.	.	.	.	.	.	.	.
.	.	.	.	.	.	16ee\JJ)	.	.	.	.	.	.	.	.
8E\	.	.	8b/	8g#\	.	(16dd#X\LL	.	.	.	.	.	4r	.	4r
.	.	.	.	.	.	16ee\	.	.	.	.	.	.	.	.
8E\J	.	.	8b/J	8g#\J	.	16dd#\	.	.	.	.	.	.	.	.
.	.	.	.	.	.	16ee\JJ)	.	.	.	.	.	.	.	.
!	!	!	!	!	!	!	!	!	!	!	!	!LO:LB:g=original	!	!
=13	=13	=13	=13	=13	=13	=13	=13	=13	=13	=13	=13	=13	=13	=13
!	!	!	!LO:SIC:v:o=8g\L	!	!	!	!	!	!	!	!	!	!	!
8E\L	.	.	8g#\L	8b/	.	8.dddn\L	.	1ryy	1ryy	1ryy	1ryy	8ee\L	.	8gg#X\L
8E\	.	.	8gg#X\J	8ryy	.	.	.	.	.	.	.	16ee\L	.	8gg#\J
.	.	.	.	.	.	16bb\Jk	.	.	.	.	.	16ee\JJ	.	.
.	.	.	(<8qqaa/	.	.	(<8qqccc#/	.	.	.	.	.	.	.	.
8E\	.	.	8.gg#m\L)	4ryy	.	8.bbM\L)	.	.	.	.	.	8ee\L	.	8.gg#m\L
8E\J	.	.	.	.	.	.	.	.	.	.	.	8ee\J	.	.
.	.	.	(>32ff#\LL	.	.	(32aa\LL	.	.	.	.	.	.	.	(32ff#\LL
.	.	.	32gg#\JJJ)	.	.	32bb\JJJ)	.	.	.	.	.	.	.	32gg#\JJJ)
!	!	!	!	!	!	!LO:LB:g=original	!	!	!	!	!	!	!	!
=-	=-	=-	=-	=-	=-	=-	=-	=-	=-	=-	=-	=-	=-	=-
!	!	!	!LO:TX:t=P:problem=mixed beam	!	!	!	!	!	!	!	!	!	!	!
8E\L	6 4	.	8aa\L	8ryy	.	16ccc#\LL	.	.	.	.	.	4ee\	.	4aa\
.	.	.	.	.	.	(16ee\	.	.	.	.	.	.	.	.
8E\	.	.	8cc#/	8a\L	.	16dd#X\	.	.	.	.	.	.	.	.
.	.	.	.	.	.	16ee\JJ)	.	.	.	.	.	.	.	.
8E\	.	.	8cc#/	8a\	.	(16dd#X\LL	.	.	.	.	.	4r	.	4r
.	.	.	.	.	.	16ee\	.	.	.	.	.	.	.	.
8E\J	.	.	8cc#/J	8a\J	.	16dd#\	.	.	.	.	.	.	.	.
.	.	.	.	.	.	16ee\JJ)	.	.	.	.	.	.	.	.
*	*	*	*v	*v	*	*	*	*	*	*	*	*	*	*
!	!	!	!	!	!	!	!	!	!	!	!	!	!LO:LB:g=original
=14	=14	=14	=14	=14	=14	=14	=14	=14	=14	=14	=14	=14	=14
8D#X\L	2	.	8a\L	.	8.ccc#\L	.	1ryy	1ryy	1ryy	1ryy	8ff#\L	.	8aa\L
8Dn\	.	.	8ff#\J	.	.	.	.	.	.	.	8ff#\J	.	8aa\J
.	.	.	.	.	16aa\Jk	.	.	.	.	.	.	.	.
.	.	.	.	.	.	.	.	.	.	.	.	.	(<8qqbb/
8D\	.	.	8.ff#m\L	.	8.aaM\L	.	.	.	.	.	8.ff#m\L	.	8.aaM\L)
8D\J	.	.	.	.	.	.	.	.	.	.	.	.	.
!	!	!	!	!	!LO:SIC:v:o=(32gg\LL	!	!	!	!	!	!	!	!
.	.	.	(>32ee\LL	.	(32gg#\LL	.	.	.	.	.	(32ee\LL	.	32gg#X\LL
.	.	.	32ff#\JJJ)	.	32aa\JJJ)	.	.	.	.	.	32ff#\JJJ)	.	32aa\JJJ
*	*	*	*	*	*Xtuplet	*	*	*	*	*	*	*	*
!	!	!	!	!	!LO:TUP:a:problem=klamra łukowa	!	!	!	!	!	!	!	!
8E\L	#	.	8g#X/L	.	24bb\LL	.	.	.	.	.	4ee\	.	4gg#X\
.	.	.	.	.	24dd#X\	.	.	.	.	.	.	.	.
.	.	.	.	.	24ee\JJ	.	.	.	.	.	.	.	.
8F#\	.	.	8a/	.	4.ee\	.	.	.	.	.	.	.	.
8G#X\	6	.	8b/	.	.	.	.	.	.	.	4r	.	4r
8F#\J	.	.	8a/J	.	.	.	.	.	.	.	.	.	.
=15	=15	=15	=15	=15	=15	=15	=15	=15	=15	=15	=15	=15	=15
!	!	!	!LO:SIC:v:o=8g/L	!	!	!	!	!	!	!	!	!	!
8E\L	2 #	.	8g#/L	.	24bb\LL	.	1ryy	1ryy	1ryy	1ryy	4ee\	.	4gg#X\
.	.	.	.	.	24cc#\	.	.	.	.	.	.	.	.
.	.	.	.	.	24dd\JJ	.	.	.	.	.	.	.	.
8F#\	.	.	8a/	.	4.ddnM\	.	.	.	.	.	.	.	.
8G#X\	.	.	8b/	.	.	.	.	.	.	.	4r	.	4r
8E\J	.	.	8g/J	.	.	.	.	.	.	.	.	.	.
!	!	!	!LO:LB:g=original	!	!	!	!	!	!	!	!	!	!
=-	=-	=-	=-	=-	=-	=-	=-	=-	=-	=-	=-	=-	=-
!	!	!	!LO:TX:t=P:problem=mixed beam	!	!	!	!	!	!	!	!	!	!
4A\	6	.	16a/LL	.	16cc#\LL	.	.	.	.	.	8r	.	8r
.	.	.	16a/	.	16cc#\	.	.	.	.	.	.	.	.
.	.	.	16aa\	.	16aa\	.	.	.	.	.	8ee\	.	8aa\
.	.	.	16aa\JJ	.	16aa\JJ	.	.	.	.	.	.	.	.
4D\	5	.	16ff#\LL	.	16ff#\LL	.	.	.	.	.	4ff#m\	.	4aaM\
.	.	.	16ff#\	.	16ff#\	.	.	.	.	.	.	.	.
.	.	.	16dd\	.	16dd\	.	.	.	.	.	.	.	.
.	.	.	16dd\JJ	.	16dd\JJ	.	.	.	.	.	.	.	.
=16	=16	=16	=16	=16	=16	=16	=16	=16	=16	=16	=16	=16	=16
4E\	#	.	16b/LL	.	16b/LL	.	1ryy	1ryy	1ryy	1ryy	4ee\	.	4gg#X\
.	.	.	16b/	.	16b/	.	.	.	.	.	.	.	.
.	.	.	16g#X/	.	16g#X/	.	.	.	.	.	.	.	.
.	.	.	16g#/JJ	.	16g#/JJ	.	.	.	.	.	.	.	.
4r	.	.	16d/LL	.	16d/LL	.	.	.	.	.	4r	.	4r
.	.	.	16d/	.	16d/	.	.	.	.	.	.	.	.
.	.	.	16B/	.	16B/	.	.	.	.	.	.	.	.
.	.	.	16B/JJ	.	16B/JJ	.	.	.	.	.	.	.	.
!	!	!	!LO:TX:t=P:problem=mixed beam	!	!LO:TX:t=P:problem=mixed beam	!	!	!	!	!	!	!	!
8r	.	.	8G#X/L	.	8G#X/L	.	.	.	.	.	8r	.	8r
8G#X\L	6 5	.	8dd\	.	8dd\	.	.	.	.	.	8ee\	.	4ee\
8A\	.	.	8cc#\	.	8cc#\	.	.	.	.	.	4ff#m\	.	.
8D#X\J	6	.	8a\J	.	8a\J	.	.	.	.	.	.	.	8aa\
!	!	!	!	!	!LO:LB:g=original	!	!	!	!	!	!	!	!
=17	=17	=17	=17	=17	=17	=17	=17	=17	=17	=17	=17	=17	=17
4E\	4#r	.	4e/	.	4e/	.	1ryy	1ryy	1ryy	1ryy	4ee\	.	4aa\
4EE/	.	.	4bM\	.	4bM/	.	.	.	.	.	4ee\	.	4gg#Xm\
4AA/	.	.	16cc#\LL	.	16cc#\LL	.	.	.	.	.	4ff#\	.	4aa\
.	.	.	16cc#\	.	16cc#\	.	.	.	.	.	.	.	.
.	.	.	16aa\	.	16aa\	.	.	.	.	.	.	.	.
.	.	.	16aa\JJ	.	16aa\JJ	.	.	.	.	.	.	.	.
4Dn\	.	.	16ff#\LL	.	16ff#\LL	.	.	.	.	.	4ff#\	.	4aa\
.	.	.	16ff#\	.	16ff#\	.	.	.	.	.	.	.	.
.	.	.	16dd\	.	16dd\	.	.	.	.	.	.	.	.
.	.	.	16dd\JJ	.	16dd\JJ	.	.	.	.	.	.	.	.
!LO:LB:g=original	!	!	!	!	!	!	!	!	!	!	!	!	!
=18	=18	=18	=18	=18	=18	=18	=18	=18	=18	=18	=18	=18	=18
4E\	#	.	16b/LL	.	16b/LL	.	1ryy	1ryy	1ryy	1ryy	4ee\	.	4gg#X\
.	.	.	16b/	.	16b/	.	.	.	.	.	.	.	.
.	.	.	16g#X/	.	16g#X/	.	.	.	.	.	.	.	.
.	.	.	16g#/JJ	.	16g#/JJ	.	.	.	.	.	.	.	.
4r	.	.	16d/LL	.	16d/LL	.	.	.	.	.	4r	.	4r
.	.	.	16d/	.	16d/	.	.	.	.	.	.	.	.
.	.	.	16B/	.	16B/	.	.	.	.	.	.	.	.
.	.	.	16B/JJ	.	16B/JJ	.	.	.	.	.	.	.	.
!	!	!	!LO:TX:t=P:problem=mixed beam	!	!LO:TX:t=P:problem=mixed beam	!	!	!	!	!	!	!	!
8r	.	.	8G#X/L	.	8G#/L	.	.	.	.	.	8r	.	8r
8G#X\L	6 5	.	8ddd\J	.	8ddd\	.	.	.	.	.	4ee\	.	4ee\
8A\	.	.	8ccc#\L	.	8ccc#\	.	.	.	.	.	.	.	.
8D#X\J	.	.	8aa\J	.	8aa\J	.	.	.	.	.	8ff#\	.	8aa\
!	!	!	!	!	!	!	!	!	!	!	!LO:LB:g=original	!	!LO:LB:g=original
=19	=19	=19	=19	=19	=19	=19	=19	=19	=19	=19	=19	=19	=19
4E\	#	.	4ee\	.	4ee\	.	1ryy	1ryy	1ryy	1ryy	4ee\	.	4aa\
4EE/	#	.	4bbM\	.	4bbM\	.	.	.	.	.	4ee\	.	4gg#Xm\
4AA/	.	.	4aa\	.	4aa\	.	.	.	.	.	4ee\	.	4aa\
4r	.	.	16ee\LL	.	16ee\LL	.	.	.	.	.	4r	.	4r
.	.	.	16dd\	.	16dd\	.	.	.	.	.	.	.	.
.	.	.	16cc#\	.	16cc#\	.	.	.	.	.	.	.	.
.	.	.	16b\JJ	.	16b\JJ	.	.	.	.	.	.	.	.
!	!	!	!LO:LB:g=original	!	!	!	!	!	!	!	!	!	!
=20	=20	=20	=20	=20	=20	=20	=20	=20	=20	=20	=20	=20	=20
4A|>\	.	.	4a/	.	4a/	.	1ryy	1ryy	1ryy	1ryy	4ee\	.	4aa\
16E|>\LL	.	.	16e/LL	.	16e/LL	.	.	.	.	.	4r	.	4r
16D|>\	.	.	16d/	.	16d/	.	.	.	.	.	.	.	.
16C#|>\	.	.	16c#/	.	16c#/	.	.	.	.	.	.	.	.
16BB|>\JJ	.	.	16B/JJ	.	16B/JJ	.	.	.	.	.	.	.	.
!LO:TX:t=P:problem=mixed beam	!	!	!LO:TX:t=P:problem=mixed beam	!	!LO:TX:t=P:problem=mixed beam	!	!	!	!	!	!	!	!
8AA/L	.	.	8A/L	.	8A/L	.	.	.	.	.	8r	.	8r
8A\	.	.	8cc#\	.	8cc#\	.	.	.	.	.	8aa\L	.	8ccc#\L
8c#\	.	.	8ee\	.	8ee\	.	.	.	.	.	8aa\	.	8ccc#\
8A\J	.	.	8aa\J	.	8aa\J	.	.	.	.	.	8aa\J	.	8ccc#\J
=21	=21	=21	=21	=21	=21	=21	=21	=21	=21	=21	=21	=21	=21
.	.	.	(<8qqaa/	.	.	.	.	.	.	.	.	.	.
!	!	!	!LO:SIC:v:o=(>16gg\LL)	!	!	!	!	!	!	!	!	!	!
8e\L	#	.	(>16gg#\LL)	.	16gg#X\LL	.	1ryy	1ryy	1ryy	1ryy	8r	.	8r
.	.	.	16ff#\JJ)	.	16ff#\JJ	.	.	.	.	.	.	.	.
8E\	4	.	4.ee\	.	4.ee\	.	.	.	.	.	8gg#X\L	.	8bb\L
8Dn\	6	.	.	.	.	.	.	.	.	.	8gg#\	.	8bb\
8C#\J	5	.	.	.	.	.	.	.	.	.	8aa\J	.	8ccc#\J
8D\L	.	.	(>16ff#\LL	.	16ff#\LL	.	.	.	.	.	4ff#\	.	4aa\
.	.	.	16dd\JJ)	.	16dd\JJ	.	.	.	.	.	.	.	.
.	.	.	(<8qqcc#/	.	8qqcc#/	.	.	.	.	.	.	.	.
8D\	6	.	4.b\)	.	4.b\	.	.	.	.	.	.	.	.
8D\	.	.	.	.	.	.	.	.	.	.	4r	.	4r
8D\J	.	.	.	.	.	.	.	.	.	.	.	.	.
!	!	!	!	!	!LO:LB:g=original	!	!	!	!	!	!	!	!
=22	=22	=22	=22	=22	=22	=22	=22	=22	=22	=22	=22	=22	=22
8C#/L	2	.	(>16ee\LL	.	16ee\LL	.	1ryy	1ryy	1ryy	1ryy	4ee\	.	4aa\
.	.	.	16cc#\JJ)	.	16cc#\JJ	.	.	.	.	.	.	.	.
.	.	.	.	.	8qqcc#/	.	.	.	.	.	.	.	.
8C#/	6	.	4.a/	.	4.a/	.	.	.	.	.	.	.	.
8C#/	.	.	.	.	.	.	.	.	.	.	4r	.	4r
8C#/J	.	.	.	.	.	.	.	.	.	.	.	.	.
4BB/	6\	.	16g#X/LL	.	16g#X/LL	.	.	.	.	.	4r	.	4r
.	.	.	16f#/	.	16a/	.	.	.	.	.	.	.	.
.	.	.	16g#/	.	16b/	.	.	.	.	.	.	.	.
.	.	.	16a/JJ	.	16cc#/JJ	.	.	.	.	.	.	.	.
4EE/	2 #	.	8b\L	.	8dd\L	.	.	.	.	.	8r	.	8r
.	.	.	8b\J	.	8dd\J	.	.	.	.	.	16ee\LL	.	16ee\LL
.	.	.	.	.	.	.	.	.	.	.	16ee\JJ	.	16ee\JJ
=23	=23	=23	=23	=23	=23	=23	=23	=23	=23	=23	=23	=23	=23
!LO:TX:t=P:problem=mixed beam	!	!	!	!	!	!	!	!	!	!	!	!	!
8AA/L	.	.	8b\L	.	8ddM\L	.	1ryy	1ryy	1ryy	1ryy	8ee\L	.	8ee\L
16A\L	.	.	8a\J	.	8cc#\J	.	.	.	.	.	8a\J	.	8ee\J
16Gn\JJ	.	.	.	.	.	.	.	.	.	.	.	.	.
8F#\L	6	.	4r	.	4r	.	.	.	.	.	8dd\L	.	8ff#\L
8D\J	.	.	.	.	.	.	.	.	.	.	16ee\L	.	16gg\L
.	.	.	.	.	.	.	.	.	.	.	16ff#\JJ	.	16aa\JJ
!LO:LB:g=original	!	!	!	!	!	!	!	!	!	!	!	!	!
=-	=-	=-	=-	=-	=-	=-	=-	=-	=-	=-	=-	=-	=-
8G\L	5	.	(>16bb\LL	.	(16bb\LL	.	.	.	.	.	8gg\	.	8bb\
.	.	.	16gg\JJ)	.	16ggn\JJ)	.	.	.	.	.	.	.	.
.	.	.	8qqff#/	.	8qqff#/	.	.	.	.	.	.	.	.
8G\	6	.	4.ee\	.	4.ee\	.	.	.	.	.	8r	.	8r
8G\	.	.	.	.	.	.	.	.	.	.	4r	.	4r
8G\J	.	.	.	.	.	.	.	.	.	.	.	.	.
!	!	!	!	!	!	!	!	!	!	!	!	!	!LO:LB:g=original
=24	=24	=24	=24	=24	=24	=24	=24	=24	=24	=24	=24	=24	=24
!	!	!	!LO:MO:mod=(16aaLL	!	!	!	!	!	!	!	!	!	!
8F#\L	2	.	16aa\LL	.	(16aa\LL	.	1ryy	1ryy	1ryy	1ryy	8ff#\	.	8aa\
!	!	!	!LO:MO:mod=16ff#JJ)	!	!	!	!	!	!	!	!	!	!
.	.	.	16ff#\JJ	.	16ff#\JJ)	.	.	.	.	.	.	.	.
.	.	.	8qqee/	.	8qqee/	.	.	.	.	.	.	.	.
8F#\	6	.	4.dd\	.	4.dd\	.	.	.	.	.	8r	.	8r
8F#\	.	.	.	.	.	.	.	.	.	.	4r	.	4r
8F#\J	.	.	.	.	.	.	.	.	.	.	.	.	.
4E\	6	.	16cc#\LL	.	16cc#\LL	.	.	.	.	.	8r	.	8r
.	.	.	16b\	.	16dd\	.	.	.	.	.	.	.	.
.	.	.	16cc#\	.	16ee\	.	.	.	.	.	8ee\L	.	8gg\L
.	.	.	16dd\JJ	.	16ff#\JJ	.	.	.	.	.	.	.	.
4AA/	2	.	8ee\L	.	8ggn\L	.	.	.	.	.	8ee\	.	8gg\
.	.	.	8ee\J	.	8gg\J	.	.	.	.	.	8ee\J	.	8gg\J
!	!	!	!LO:LB:g=original	!	!	!	!	!	!	!	!LO:LB:g=original	!	!
=25	=25	=25	=25	=25	=25	=25	=25	=25	=25	=25	=25	=25	=25
4D/	.	.	8a/	.	8ff#\	.	1ryy	1ryy	1ryy	1ryy	4dd\	.	4ff#\
.	.	.	(>32dd\LLL	.	(32dd\LLL	.	.	.	.	.	.	.	.
.	.	.	32ee\	.	32ee\	.	.	.	.	.	.	.	.
.	.	.	32ff#\	.	32ff#\	.	.	.	.	.	.	.	.
.	.	.	32gg\JJJ)	.	32gg\JJJ)	.	.	.	.	.	.	.	.
8r	.	.	8aa\L	.	8aa\L	.	.	.	.	.	4r	.	4r
8AA/	3	.	8ddd\J	.	8ddd\J	.	.	.	.	.	.	.	.
4E\	26	.	8ddd\	.	8ddd\	.	.	.	.	.	2r	.	2r
.	.	.	4ccc#\	.	4ccc#\	.	.	.	.	.	.	.	.
4E#X\	6\ 4:5	.	.	.	.	.	.	.	.	.	.	.	.
.	.	.	8bb\	.	8bb\	.	.	.	.	.	.	.	.
=26	=26	=26	=26	=26	=26	=26	=26	=26	=26	=26	=26	=26	=26
8F#\L	#	.	(>16aa#X\LL	.	(16aa#X\LL	.	1ryy	1ryy	1ryy	1ryy	4f#/	.	4f#/
.	.	.	16ff#\	.	16ff#\	.	.	.	.	.	.	.	.
8G#X\	.	.	16ee#X\	.	16ee#X\	.	.	.	.	.	.	.	.
!	!	!	!	!	!LO:MO:mod=16ff#JJ	!	!	!	!	!	!	!	!
.	.	.	16ff#\JJ	.	16ff#\JJ)	.	.	.	.	.	.	.	.
!	!	!	!	!	!LO:LB:g=original	!	!	!	!	!	!	!	!
!	!	!	!	!	!LO:MO:mod=16ee#LL	!	!	!	!	!	!	!	!
8A#X\	.	.	16ee#\LL	.	(16ee#X\LL	.	.	.	.	.	4r	.	4r
.	.	.	16ff#\	.	16ff#\	.	.	.	.	.	.	.	.
8G#\J	.	.	16ee#\	.	16ee#\	.	.	.	.	.	.	.	.
.	.	.	16ff#\JJ)	.	16ff#\JJ)	.	.	.	.	.	.	.	.
8F#\L	.	.	8.ccc#\L	.	8.ccc#\L	.	.	.	.	.	8r	.	8r
8F#\	.	.	.	.	.	.	.	.	.	.	16f#/LL	.	16f#/LL
.	.	.	16cc#\Jk	.	16een\Jk	.	.	.	.	.	16f#/JJ	.	16f#/JJ
.	.	.	.	.	(<8qqff#/	.	.	.	.	.	.	.	.
8A#X\	.	.	8.cc#m\L	.	8.eeM\L)	.	.	.	.	.	8f#/L	.	8f#/L
8A#\J	.	.	.	.	.	.	.	.	.	.	8f#/J	.	8f#/J
.	.	.	(>32b\LL	.	(>32dd\LL	.	.	.	.	.	.	.	.
.	.	.	32cc#\JJJ)	.	32ee\JJJ)	.	.	.	.	.	.	.	.
=27	=27	=27	=27	=27	=27	=27	=27	=27	=27	=27	=27	=27	=27
!LO:TX:t=P:problem=mixed beam	!	!	!	!	!	!	!	!	!	!	!	!	!
8B\L	.	.	16r	.	16r	.	1ryy	1ryy	1ryy	1ryy	4f#/	.	4f#/
.	.	.	(<16b/LL	.	(>16dd\LL	.	.	.	.	.	.	.	.
8BB/J	.	.	16a#X/	.	16cc#\	.	.	.	.	.	.	.	.
.	.	.	16b/JJ	.	16dd\JJ	.	.	.	.	.	.	.	.
4r	.	.	16cc#/LL	.	16een\LL	.	.	.	.	.	4r	.	4r
.	.	.	16b/	.	16dd\	.	.	.	.	.	.	.	.
.	.	.	16a#X/	.	16cc#\	.	.	.	.	.	.	.	.
.	.	.	16b/JJ)	.	16dd\JJ)	.	.	.	.	.	.	.	.
8r	.	.	8.dd\L	.	8.bb\L	.	.	.	.	.	2r	.	2r
8E#X\L	2 #	.	.	.	.	.	.	.	.	.	.	.	.
.	.	.	16b\Jk	.	16dd\Jk	.	.	.	.	.	.	.	.
8E#\	.	.	8.bM\L	.	8.ddM\L	.	.	.	.	.	.	.	.
8E#\J	.	.	.	.	.	.	.	.	.	.	.	.	.
.	.	.	(>32a#X\LL	.	(>32cc#\LL	.	.	.	.	.	.	.	.
.	.	.	32b\JJJ)	.	32dd\JJJ)	.	.	.	.	.	.	.	.
=28	=28	=28	=28	=28	=28	=28	=28	=28	=28	=28	=28	=28	=28
8F#\L	#	.	8a#X/L	.	8cc#/L	.	1ryy	1ryy	1ryy	1ryy	8r	.	8r
8F#\	.	.	16f#/L	.	16f#/L	.	.	.	.	.	16f#/LL	.	16f#/LL
.	.	.	16f#/JJ	.	16f#/JJ	.	.	.	.	.	16f#/JJ	.	16f#/JJ
8F#\	.	.	16a#/LL	.	16a#X/LL	.	.	.	.	.	8f#/L	.	8f#/L
.	.	.	16a#/	.	16a#/	.	.	.	.	.	.	.	.
8F#\J	.	.	16cc#/	.	16cc#/	.	.	.	.	.	8f#/J	.	8f#/J
.	.	.	16cc#/JJ	.	16cc#/JJ	.	.	.	.	.	.	.	.
!	!	!	!LO:LB:g=original	!	!	!	!	!	!	!	!	!	!
=-	=-	=-	=-	=-	=-	=-	=-	=-	=-	=-	=-	=-	=-
4F#\	.	.	16ee\LL	.	16ee\LL	.	.	.	.	.	4f#/	.	4f#/
.	.	.	16ee\	.	16ee\	.	.	.	.	.	.	.	.
.	.	.	16gg\	.	16gg\	.	.	.	.	.	.	.	.
.	.	.	16gg\JJ	.	16gg\JJ	.	.	.	.	.	.	.	.
4r	.	.	16a#X/LL	.	16cc#\LL	.	.	.	.	.	4r	.	4r
.	.	.	16a#/	.	16cc#\	.	.	.	.	.	.	.	.
.	.	.	16cc#/	.	16ee\	.	.	.	.	.	.	.	.
.	.	.	16cc#/JJ	.	16ee\JJ	.	.	.	.	.	.	.	.
=29	=29	=29	=29	=29	=29	=29	=29	=29	=29	=29	=29	=29	=29
!	!	!	!	!	!	!	!	!	!	!	!LO:TX:a:t=2:mod=	!	!LO:TX:a:t=2:mod=
8r	.	.	16e/LL	.	16e/LL	.	1ryy	1ryy	1ryy	1ryy	0r	.	0r
.	.	.	16e/	.	16e/	.	.	.	.	.	.	.	.
8G|>\L	.	.	16g/	.	16g/	.	.	.	.	.	.	.	.
.	.	.	16g/JJ	.	16g/JJ	.	.	.	.	.	.	.	.
8C#|>\	.	.	16c#/LL	.	16c#/LL	.	.	.	.	.	.	.	.
.	.	.	16c#/	.	16c#/	.	.	.	.	.	.	.	.
8E|>\J	.	.	16e/	.	16e/	.	.	.	.	.	.	.	.
.	.	.	16e/JJ	.	16e/JJ	.	.	.	.	.	.	.	.
!	!	!	!LO:TX:t=P:problem=mixed beam	!	!LO:TX:t=P:problem=mixed beam	!	!	!	!	!	!	!	!
4AA#X/	.	.	8A#X/L	.	8A#X/L	.	.	.	.	.	.	.	.
.	.	.	8ee\	.	8gg\	.	.	.	.	.	.	.	.
4r	.	.	8ee\	.	8gg\	.	.	.	.	.	.	.	.
.	.	.	8ee\J	.	8gg\J	.	.	.	.	.	.	.	.
!LO:LB:g=original	!	!	!	!	!LO:LB:g=original	!	!	!	!	!	!	!	!
=30	=30	=30	=30	=30	=30	=30	=30	=30	=30	=30	=30	=30	=30
8r	.	.	(>8.ee\L	.	4ggM\	.	1ryy	1ryy	1ryy	1ryy	.	.	.
8AA#X/L	4\	.	.	.	.	.	.	.	.	.	.	.	.
.	.	.	32ff#\LL	.	.	.	.	.	.	.	.	.	.
.	.	.	32gg\JJJ)	.	.	.	.	.	.	.	.	.	.
8AA#/	2	.	16ff#\LL	.	16ff#\LL	.	.	.	.	.	.	.	.
.	.	.	16ee\	.	16ee\	.	.	.	.	.	.	.	.
8AA#/J	6	.	16dd\	.	16dd\	.	.	.	.	.	.	.	.
.	.	.	16cc#\JJ	.	16cc#\JJ	.	.	.	.	.	.	.	.
!	!	!	!LO:TX:t=P:problem=mixed beam	!	!LO:TX:t=P:problem=mixed beam	!	!	!	!	!	!	!	!
8BB/L	.	.	16dd\LL	.	16dd\LL	.	.	.	.	.	.	.	.
.	.	.	16bb\	.	16bb\	.	.	.	.	.	.	.	.
8D/	.	.	16d/	.	16d/	.	.	.	.	.	.	.	.
.	.	.	16d/JJ	.	16d/JJ	.	.	.	.	.	.	.	.
!	!	!	!LO:TX:t=P:problem=mixed beam	!	!LO:TX:t=P:problem=mixed beam	!	!	!	!	!	!	!	!
8E/	.	.	16e/LL	.	16e/LL	.	.	.	.	.	.	.	.
.	.	.	16bb\	.	16bb\	.	.	.	.	.	.	.	.
8F#/J	.	.	16f#/	.	16f#/	.	.	.	.	.	.	.	.
.	.	.	16f#/JJ	.	16f#/JJ	.	.	.	.	.	.	.	.
!	!	!	!	!	!	!	!	!	!	!	!	!	!LO:LB:g=original
=31	=31	=31	=31	=31	=31	=31	=31	=31	=31	=31	=31	=31	=31
!LO:TX:t=P:problem=mixed beam	!	!	!LO:TX:t=P:problem=mixed beam	!	!LO:TX:t=P:problem=mixed beam	!	!	!	!	!	!	!	!
8G\L	.	.	16g/LL	.	16g/LL	.	1ryy	1ryy	1ryy	1ryy	4r	.	4r
.	.	.	16bb\	.	16bb\	.	.	.	.	.	.	.	.
8E\	.	.	16e/	.	16e/	.	.	.	.	.	.	.	.
.	.	.	16e/JJ	.	16e/JJ	.	.	.	.	.	.	.	.
!	!	!	!LO:TX:t=P:problem=mixed beam	!	!	!	!	!	!	!	!	!	!
8F#\	#	.	8f#/L	.	8e/L	.	.	.	.	.	8r	.	8r
8FF#/J	.	.	8cc#m\J	.	8aM/J	.	.	.	.	.	16f#/LL	.	16f#/LL
.	.	.	.	.	.	.	.	.	.	.	16f#/JJ	.	16f#/JJ
!	!	!	!LO:TX:t=P:problem=mixed beam	!	!LO:TX:t=P:problem=mixed beam	!	!	!	!	!	!	!	!
!	!	!	!	!LO:DY:b:t=pia	!	!	!	!	!	!	!	!	!
8BB/L	.	.	16b\LL	p	16b\LL	.	.	.	.	.	8f#/L	.	4f#/
.	.	.	16bb\	.	16bb\	.	.	.	.	.	.	.	.
8D/	.	.	16d/	.	16d/	.	.	.	.	.	8f#/J	.	.
.	.	.	16d/JJ	.	16d/JJ	.	.	.	.	.	.	.	.
!	!	!	!LO:TX:t=P:problem=mixed beam	!	!LO:TX:t=P:problem=mixed beam	!	!	!	!	!	!	!	!
8E/	.	.	16e/LL	.	16e/LL	.	.	.	.	.	4r	.	4r
.	.	.	16bb\	.	16bb\	.	.	.	.	.	.	.	.
8F#/J	.	.	16f#/	.	16f#/	.	.	.	.	.	.	.	.
.	.	.	16f#/JJ	.	16f#/JJ	.	.	.	.	.	.	.	.
!	!	!	!LO:LB:g=original	!	!	!	!	!	!	!	!	!	!
=32	=32	=32	=32	=32	=32	=32	=32	=32	=32	=32	=32	=32	=32
!LO:TX:t=P:problem=mixed beam	!	!	!LO:TX:t=P:problem=mixed beam	!	!LO:TX:t=P:problem=mixed beam	!	!	!	!	!	!	!	!
8G\L	.	.	16g/LL	.	16g/LL	.	1ryy	1ryy	1ryy	1ryy	4r	.	4r
.	.	.	16bb\	.	16bb\	.	.	.	.	.	.	.	.
8E\	.	.	16e/	.	16e/	.	.	.	.	.	.	.	.
.	.	.	16e/JJ	.	16e/JJ	.	.	.	.	.	.	.	.
!	!	!	!LO:TX:t=P:problem=mixed beam	!	!LO:TX:t=P:problem=mixed beam	!	!	!	!	!	!	!	!
8F#\	.	.	8f#/L	.	8f#/L	.	.	.	.	.	8r	.	8r
8FF#/J	.	.	8cc#m\J	.	8cc#m\J	.	.	.	.	.	16f#/LL	.	16f#/LL
.	.	.	.	.	.	.	.	.	.	.	16f#/JJ	.	16f#/JJ
!LO:TX:t=P:problem=mixed beam	!	!	!	!	!	!	!	!	!	!	!	!	!
16BB/LL	.	.	4b\	.	4b\	.	.	.	.	.	4f#/	.	4f#/
16B\	.	.	.	.	.	.	.	.	.	.	.	.	.
16A\	.	.	.	.	.	.	.	.	.	.	.	.	.
16G\JJ	.	.	.	.	.	.	.	.	.	.	.	.	.
16F#\LL	.	.	4r	.	4r	.	.	.	.	.	4r	.	4r
16G\	.	.	.	.	.	.	.	.	.	.	.	.	.
16F#\	.	.	.	.	.	.	.	.	.	.	.	.	.
16E\JJ	.	.	.	.	.	.	.	.	.	.	.	.	.
!	!	!	!	!	!	!	!	!	!	!	!LO:LB:g=original	!	!
=33	=33	=33	=33	=33	=33	=33	=33	=33	=33	=33	=33	=33	=33
!	!	!	!	!LO:DY:b:t=for:rj	!	!	!	!	!	!	!	!	!
4D\	.	.	4d/ 4ff# 4ddd	f	4d/ 4ff# 4ddd	.	1ryy	1ryy	1ryy	1ryy	4dd\	.	4ff#\
4r	.	.	16aa\LL	.	16aa\LL	.	.	.	.	.	4r	.	16aa\LL
.	.	.	16gg\	.	16gg\	.	.	.	.	.	.	.	16gg\
.	.	.	16ff#\	.	16ff#\	.	.	.	.	.	.	.	16ff#\
.	.	.	16ee\JJ	.	16ee\JJ	.	.	.	.	.	.	.	16ee\JJ
4d|>\	.	.	4dd\	.	4dd\	.	.	.	.	.	4dd\	.	4dd\
16A|>\LL	.	.	16a/LL	.	16a/LL	.	.	.	.	.	4a/	.	4a/
16G|>\	.	.	16g/	.	16g/	.	.	.	.	.	.	.	.
16F#|>\	.	.	16f#/	.	16f#/	.	.	.	.	.	.	.	.
16E|>\JJ	.	.	16e/JJ	.	16e/JJ	.	.	.	.	.	.	.	.
!	!	!	!	!	!LO:LB:g=original	!	!	!	!	!	!	!	!
=34	=34	=34	=34	=34	=34	=34	=34	=34	=34	=34	=34	=34	=34
!	!	!	!LO:TX:t=P:problem=mixed beam	!	!LO:TX:t=P:problem=mixed beam	!	!	!	!	!	!	!	!
8D\L	.	.	8d/L	.	8d/L	.	1ryy	1ryy	1ryy	1ryy	4d/	.	4f#/
8D\	.	.	8ff#\	.	8ff#\J	.	.	.	.	.	.	.	.
8F#\	.	.	8aa\	.	8aa\L	.	.	.	.	.	8r	.	8r
8D\J	.	.	8ddd\J	.	8ddd\J	.	.	.	.	.	8dd\	.	8ff#\
!LO:TX:t=P:problem=mixed beam	!	!	!	!	!	!	!	!	!	!	!	!	!
!	!	!	!	!	!LO:MO:mod=(16ccc#LL	!	!	!	!	!	!	!	!
8AA/L	.	.	(>16ccc#\LL	.	16ccc#\LL	.	.	.	.	.	8a/L	.	8ee\L
!	!	!	!	!	!LO:MO:mod=16bbJJ)	!	!	!	!	!	!	!	!
.	.	.	16bb\JJ)	.	16bb\JJ	.	.	.	.	.	.	.	.
16A\L	.	.	4.aa\	.	4.aa\	.	.	.	.	.	16a/L	.	16ee\L
16G\JJ	.	.	.	.	.	.	.	.	.	.	16a/JJ	.	16ee\JJ
8F#\L	6	.	.	.	.	.	.	.	.	.	8dd\L	.	8ff#\L
8C#\J	.	.	.	.	.	.	.	.	.	.	8ff#\J	.	8aa\J
!LO:LB:g=original	!	!	!	!	!	!	!	!	!	!	!	!	!
=35	=35	=35	=35	=35	=35	=35	=35	=35	=35	=35	=35	=35	=35
!	!	!	!	!	!LO:MO:mod=(16bbLL	!	!	!	!	!	!	!	!
8r	.	.	(>16bb\LL	.	16bb\LL	.	1ryy	1ryy	1ryy	1ryy	8gg\	.	8bb\
!	!	!	!	!	!LO:MO:mod=16ggJJ)	!	!	!	!	!	!	!	!
.	.	.	16gg\JJ)	.	16gg\JJ	.	.	.	.	.	.	.	.
.	.	.	8qqff#/	.	(<8qqff#/	.	.	.	.	.	.	.	.
8G\L	6	.	4.ee\	.	4.ee\)	.	.	.	.	.	8r	.	8r
8G\	.	.	.	.	.	.	.	.	.	.	4r	.	4r
8G\J	.	.	.	.	.	.	.	.	.	.	.	.	.
!	!	!	!	!	!LO:MO:mod=(16aaLL	!	!	!	!	!	!	!	!
8r	.	.	(>16aa\LL	.	16aa\LL	.	.	.	.	.	8ff#\	.	8aa\
!	!	!	!	!	!LO:MO:mod=16ff#JJ)	!	!	!	!	!	!	!	!
.	.	.	16ff#\JJ)	.	16ff#\JJ	.	.	.	.	.	.	.	.
.	.	.	8qqff#/	.	8qqee/	.	.	.	.	.	.	.	.
8F#\L	6	.	4.dd\	.	4.dd\	.	.	.	.	.	8r	.	8r
8F#\	.	.	.	.	.	.	.	.	.	.	4r	.	4r
8F#\J	.	.	.	.	.	.	.	.	.	.	.	.	.
!	!	!	!	!	!	!	!	!	!	!	!	!	!LO:LB:g=original
=36	=36	=36	=36	=36	=36	=36	=36	=36	=36	=36	=36	=36	=36
4E\	6	.	16cc#\LL	.	16cc#\LL	.	1ryy	1ryy	1ryy	1ryy	8r	.	8r
.	.	.	16b\	.	16dd\	.	.	.	.	.	.	.	.
.	.	.	16cc#\	.	16ee\	.	.	.	.	.	8ee\L	.	8gg\L
.	.	.	16dd\JJ	.	16ff#\JJ	.	.	.	.	.	.	.	.
4AA/	.	.	8ee\L	.	8gg\L	.	.	.	.	.	8ee\	.	8gg\
!	!	!	!	!	!LO:SIC:v:o=8ff#\J	!	!	!	!	!	!	!	!
.	.	.	8ee\J	.	8gg\J	.	.	.	.	.	8ee\J	.	8gg\J
8r	.	.	8ee\L	.	8gg\L	.	.	.	.	.	8eeM\L	.	8ggM\L
8D\L	.	.	8dd\J	.	8ff#\J	.	.	.	.	.	8dd\J	.	8ff#\J
8F#\	.	.	4r	.	4r	.	.	.	.	.	4r	.	4r
8D\J	.	.	.	.	.	.	.	.	.	.	.	.	.
=37	=37	=37	=37	=37	=37	=37	=37	=37	=37	=37	=37	=37	=37
!	!	!	!	!	!	!LO:DY:a:t=pia	!	!	!	!	!	!	!LO:TX:a:t=2:mod=
8r	.	.	8r	.	(<16b/LL	p	1ryy	1ryy	1ryy	1ryy	0r	.	0r
.	.	.	.	.	16g/JJ)	.	.	.	.	.	.	.	.
.	.	.	.	.	8qqf#/	.	.	.	.	.	.	.	.
!	!	!LO:DY:a:t=pia	!	!	!	!	!	!	!	!	!	!	!
8G\L	.	p	8B/L	.	4.e/	.	.	.	.	.	.	.	.
8G\	.	.	8B/	.	.	.	.	.	.	.	.	.	.
8G\J	.	.	8B/J	.	.	.	.	.	.	.	.	.	.
!	!	!	!LO:LB:g=original	!	!	!	!	!	!	!	!	!	!
=-	=-	=-	=-	=-	=-	=-	=-	=-	=-	=-	=-	=-	=-
8r	.	.	8r	.	(<16a/LL	.	.	.	.	.	.	.	.
.	.	.	.	.	16f#/JJ)	.	.	.	.	.	.	.	.
.	.	.	.	.	8qqe/	.	.	.	.	.	.	.	.
8F#\L	6	.	8A/L	.	4.d/	.	.	.	.	.	.	.	.
8F#\	.	.	8A/	.	.	.	.	.	.	.	.	.	.
8F#\J	.	.	8A/J	.	.	.	.	.	.	.	.	.	.
=38	=38	=38	=38	=38	=38	=38	=38	=38	=38	=38	=38	=38	=38
8.E\L	6	.	16A/LL	.	16c#/LL	.	1ryy	1ryy	1ryy	1ryy	.	.	.
.	.	.	16B/	.	16d/	.	.	.	.	.	.	.	.
.	.	.	16c#/	.	16e/	.	.	.	.	.	.	.	.
16D\Jk	.	.	16d/JJ	.	16f#/JJ	.	.	.	.	.	.	.	.
8C#/L	5	.	8e/L	.	8g/L	.	.	.	.	.	.	.	.
8AA/J	.	.	8e/J	.	8g/J	.	.	.	.	.	.	.	.
4D\	.	.	16d/LL	.	16f#/LL	.	.	.	.	.	.	.	.
.	.	.	16e/	.	16g/	.	.	.	.	.	.	.	.
.	.	.	16f#/	.	16a/	.	.	.	.	.	.	.	.
.	.	.	16g/JJ	.	16b/JJ	.	.	.	.	.	.	.	.
4F#\	n5	.	8a/L	.	8ccn\L	.	.	.	.	.	.	.	.
.	.	.	8a/J	.	8cc\J	.	.	.	.	.	.	.	.
!	!	!	!	!	!LO:LB:g=original	!	!	!	!	!	!	!	!
=39	=39	=39	=39	=39	=39	=39	=39	=39	=39	=39	=39	=39	=39
8G\L	.	.	16b\LL	.	16b\LL	.	1ryy	1ryy	1ryy	1ryy	2r	.	2r
.	.	.	16dd#X\	.	16dd#X\	.	.	.	.	.	.	.	.
8G\	6	.	16ee\	.	16ee\	.	.	.	.	.	.	.	.
.	.	.	16ff#\JJ	.	16ff#\JJ	.	.	.	.	.	.	.	.
!	!	!	!LO:TX:t=P:problem=mixed beam	!	!LO:TX:t=P:problem=mixed beam	!	!	!	!	!	!	!	!
8G\	.	.	16gg\LL	.	16gg\LL	.	.	.	.	.	.	.	.
.	.	.	16aa\	.	16aa\	.	.	.	.	.	.	.	.
8G\J	.	.	16bb\	.	16bb\	.	.	.	.	.	.	.	.
.	.	.	16b/JJ	.	16b/JJ	.	.	.	.	.	.	.	.
8F#\L	2	.	16a/LL	.	16a/LL	.	.	.	.	.	8r	.	8r
.	.	.	16f#/	.	16f#/	.	.	.	.	.	.	.	.
!	!	!	!LO:SIC:v:o=16dd#X/	!	!	!	!	!	!	!	!	!	!
8F#\	6	.	16ddn/	.	16ddn/	.	.	.	.	.	8ff#\L	.	8aa\L
.	.	.	16a/JJ	.	16a/JJ	.	.	.	.	.	.	.	.
8F#\	.	.	16ff#\LL	.	16ff#\LL	.	.	.	.	.	8ff#\	.	8aa\
!	!	!	!LO:SIC:v:o=16dd#\	!	!	!	!	!	!	!	!	!	!
.	.	.	16ddn\	.	16dd\	.	.	.	.	.	.	.	.
8F#\J	.	.	16aa\	.	16aa\	.	.	.	.	.	8dd\J	.	8ff#\J
.	.	.	16ff#\JJ	.	16ff#\JJ	.	.	.	.	.	.	.	.
!	!	!	!	!	!	!	!	!	!	!	!LO:LB:g=original	!	!
=40	=40	=40	=40	=40	=40	=40	=40	=40	=40	=40	=40	=40	=40
*	*	*	*	*	*	*	*	*	*	*	*2\right	*	*2\right
!LO:TX:t=P:problem=mixed beam	!	!	!	!	!	!	!	!	!	!	!	!	!
8E\L	2	.	16gg\LL	.	16gg\LL	.	1ryy	1ryy	1ryy	1ryy	2eeM\	.	2ggM\
.	.	.	16ff#\	.	16ff#\	.	.	.	.	.	.	.	.
8E\	.	.	16ee\	.	16ee\	.	.	.	.	.	.	.	.
.	.	.	16dd\JJ	.	16dd\JJ	.	.	.	.	.	.	.	.
8AA/	2	.	16cc#\LL	.	16cc#\LL	.	.	.	.	.	.	.	.
.	.	.	16b\	.	16b\	.	.	.	.	.	.	.	.
8AA/J	.	.	16a\	.	16a\	.	.	.	.	.	.	.	.
.	.	.	16g\JJ	.	16g\JJ	.	.	.	.	.	.	.	.
8D\L	.	.	16f#/LL	.	16f#/LL	.	.	.	.	.	4dd\	.	4ff#\
.	.	.	16d/	.	16d/	.	.	.	.	.	.	.	.
8D\	.	.	16a/	.	16a/	.	.	.	.	.	.	.	.
.	.	.	16f#/JJ	.	16f#/JJ	.	.	.	.	.	.	.	.
8F#\	.	.	16dd\LL	.	16dd/LL	.	.	.	.	.	8r	.	8r
.	.	.	16a\	.	16a/	.	.	.	.	.	.	.	.
8D\J	.	.	16ff#\	.	16ff#/	.	.	.	.	.	8dd\	.	8ff#\
.	.	.	16dd\JJ	.	16dd/JJ	.	.	.	.	.	.	.	.
!LO:LB:g=original	!	!	!LO:LB:g=original	!	!	!	!	!	!	!	!	!	!
=41	=41	=41	=41	=41	=41	=41	=41	=41	=41	=41	=41	=41	=41
8AA/L	3	.	(>16ee\LL	.	(>16ee\LL	.	1ryy	1ryy	1ryy	1ryy	8a/L	.	8ee\L
.	.	.	16cc#\JJ)	.	16cc#\JJ)	.	.	.	.	.	.	.	.
!	!	!	!LO:MO:mod=(8qqb	!	!	!	!	!	!	!	!	!	!
.	.	.	8qqb/	.	(<8qqb/	.	.	.	.	.	.	.	.
!	!	!	!LO:MO:mod=4.a)	!	!	!	!	!	!	!	!	!	!
8BB/	.	.	4.a/	.	4.a/)	.	.	.	.	.	16a/L	.	16ee\L
.	.	.	.	.	.	.	.	.	.	.	16a/JJ	.	16ee\JJ
8C#/	.	.	.	.	.	.	.	.	.	.	8a/L	.	8ee\L
8BB/J	.	.	.	.	.	.	.	.	.	.	8a/J	.	8ee\J
!	!	!	!LO:MO:mod=(16eeLL	!	!	!	!	!	!	!	!	!	!
8AA/L	3	.	16ee\LL	.	(>16ee\LL	.	.	.	.	.	2aM/	.	2eeM\
!	!	!	!LO:MO:mod=16cc#JJ)	!	!	!	!	!	!	!	!	!	!
.	.	.	16cc#\JJ	.	16cc#\JJ)	.	.	.	.	.	.	.	.
.	.	.	(<8qqa/	.	8qqa/	.	.	.	.	.	.	.	.
8BB/	.	.	4.g/)	.	4.g/	.	.	.	.	.	.	.	.
8C#/	.	.	.	.	.	.	.	.	.	.	.	.	.
8AA/J	.	.	.	.	.	.	.	.	.	.	.	.	.
=42	=42	=42	=42	=42	=42	=42	=42	=42	=42	=42	=42	=42	=42
!LO:TX:t=P:problem=mixed beam	!	!	!	!	!	!	!	!	!	!	!	!	!
16D/LL	3_	.	8d/	.	8f#/	.	1ryy	1ryy	1ryy	1ryy	8dd\L	.	8ff#\L
16d\	.	.	.	.	.	.	.	.	.	.	.	.	.
16c#\	.	.	4f#/	.	4dd\	.	.	.	.	.	16dd\L	.	16ff#\L
16B\JJ	x	.	.	.	.	.	.	.	.	.	16dd\JJ	.	16ff#\JJ
8A\L	.	.	.	.	.	.	.	.	.	.	8dd\L	.	8ff#\L
8G\J	.	.	8f#/	.	8dd\	.	.	.	.	.	(8dd\J	.	8ff#\J
!	!	!	!LO:TX:t=P:problem=mixed beam	!	!	!	!	!	!	!	!	!	!
4F#\	6	.	16f#/LL	.	8dd\L	.	.	.	.	.	4dd\	.	4ff#\
.	.	.	16dd\	.	.	.	.	.	.	.	.	.	.
.	.	.	16ee\	.	16ee\L	.	.	.	.	.	.	.	.
.	.	.	16ff#\JJ	.	16ff#\JJ	.	.	.	.	.	.	.	.
4E\	.	.	16gg\LL	.	16gg\LL	.	.	.	.	.	4ee\)	.	4ggM\
.	.	.	16aa\	.	16aa\	.	.	.	.	.	.	.	.
.	.	.	16bb\	.	16bb\	.	.	.	.	.	.	.	.
.	.	.	16ccc#\JJ	.	16ccc#\JJ	.	.	.	.	.	.	.	.
!	!	!	!	!	!LO:LB:g=original	!	!	!	!	!	!	!	!LO:LB:g=original
=43	=43	=43	=43	=43	=43	=43	=43	=43	=43	=43	=43	=43	=43
!	!	!	!LO:MO:mod=8ddd|>L	!	!	!	!	!	!	!	!	!	!
4D\	.	.	8ddd\L	.	8ddd|>\L	.	1ryy	1ryy	1ryy	1ryy	4ff#\	.	4aa\
.	.	.	(8ff#\	.	(8aa\	.	.	.	.	.	.	.	.
8r	.	.	8ee\	.	8gg\	.	.	.	.	.	8r	.	8r
8d\	.	.	8dd\J)	.	8ff#\J)	.	.	.	.	.	8ff#\	.	8aa\
!	!	!	!LO:MO:mod=8ddd|>L	!	!	!	!	!	!	!	!	!	!
4D/	.	.	8ddd\L	.	8ddd|>\L	.	.	.	.	.	4gg\	.	4bb\
.	.	.	(8gg\	.	(8bb\	.	.	.	.	.	.	.	.
8r	.	.	8ff#\	.	8aa\	.	.	.	.	.	8r	.	8r
8C#/	6 5	.	8ee\J)	.	8gg\J)	.	.	.	.	.	8ee\	.	8gg\
=44	=44	=44	=44	=44	=44	=44	=44	=44	=44	=44	=44	=44	=44
8D\L	6	.	16ff#\LL	.	16gg\LL	.	1ryy	1ryy	1ryy	1ryy	4dd\	.	4ff#\
.	.	.	16ff#\	.	16gg\	.	.	.	.	.	.	.	.
8F#\	.	.	16ddd\	.	16ddd\	.	.	.	.	.	.	.	.
.	.	.	16ddd\JJ	.	16ddd\JJ	.	.	.	.	.	.	.	.
8G\	.	.	16bb\LL	.	16bb\LL	.	.	.	.	.	4r	.	4r
.	.	.	16bb\	.	16bb\	.	.	.	.	.	.	.	.
8E\J	.	.	16gg\	.	16gg\	.	.	.	.	.	.	.	.
.	.	.	16gg\JJ	.	16gg\JJ	.	.	.	.	.	.	.	.
4A\	.	.	16ee\LL	.	16ee\LL	.	.	.	.	.	2r	.	2r
.	.	.	16ee\	.	16ee\	.	.	.	.	.	.	.	.
.	.	.	16cc#\	.	16cc#\	.	.	.	.	.	.	.	.
.	.	.	16cc#\JJ	.	16cc#\JJ	.	.	.	.	.	.	.	.
4r	.	.	16g/LL	.	16g/LL	.	.	.	.	.	.	.	.
.	.	.	16g/	.	16g/	.	.	.	.	.	.	.	.
.	.	.	16e/	.	16e/	.	.	.	.	.	.	.	.
.	.	.	16e/JJ	.	16e/JJ	.	.	.	.	.	.	.	.
=45	=45	=45	=45	=45	=45	=45	=45	=45	=45	=45	=45	=45	=45
!	!	!	!LO:TX:t=P:problem=mixed beam	!	!LO:TX:t=P:problem=mixed beam	!	!	!	!	!	!	!	!
8r	.	.	8c#/L	.	8c#/L	.	1ryy	1ryy	1ryy	1ryy	8r	.	8r
8c#\L	6 5	.	(8gg\	.	(8gg\	.	.	.	.	.	8a/L	.	8ee\L
8d\	.	.	8ff#\	.	8ff#\	.	.	.	.	.	8dd/	.	8ff#\
8G\J	.	.	8ee\J)	.	8ee\J)	.	.	.	.	.	8dd/J	.	8gg\J
4A\	6 4:3	.	4dd\	.	4dd\	.	.	.	.	.	8dd\L	.	4ff#\
.	.	.	.	.	.	.	.	.	.	.	8a\J	.	.
4AA/	.	.	4eeM\	.	4eeM\	.	.	.	.	.	8dd\L	.	4eeM\
.	.	.	.	.	.	.	.	.	.	.	8a\J	.	.
!	!	!	!LO:LB:g=original	!	!	!	!	!	!	!	!LO:LB:g=original	!	!
=46	=46	=46	=46	=46	=46	=46	=46	=46	=46	=46	=46	=46	=46
8D\L	6	.	16ff#\LL	.	16ff#\LL	.	1ryy	1ryy	1ryy	1ryy	4f#/	.	4dd\
.	.	.	16ff#\	.	16ff#\	.	.	.	.	.	.	.	.
8F#\	.	.	16ddd\	.	16ddd\	.	.	.	.	.	.	.	.
.	.	.	16ddd\JJ	.	16ddd\JJ	.	.	.	.	.	.	.	.
8G\	.	.	16bb\LL	.	16bb\LL	.	.	.	.	.	4r	.	4r
.	.	.	16bb\	.	16bb\	.	.	.	.	.	.	.	.
8E\J	.	.	16gg\	.	16gg\	.	.	.	.	.	.	.	.
.	.	.	16gg\JJ	.	16gg\JJ	.	.	.	.	.	.	.	.
4A\	.	.	16ee\LL	.	16ee\LL	.	.	.	.	.	2r	.	2r
.	.	.	16ee\	.	16ee\	.	.	.	.	.	.	.	.
.	.	.	16cc#\	.	16cc#\	.	.	.	.	.	.	.	.
.	.	.	16cc#\JJ	.	16cc#\JJ	.	.	.	.	.	.	.	.
4r	.	.	16g/LL	.	16g/LL	.	.	.	.	.	.	.	.
.	.	.	16g/	.	16g/	.	.	.	.	.	.	.	.
.	.	.	16e/	.	16e/	.	.	.	.	.	.	.	.
.	.	.	16e/JJ	.	16e/JJ	.	.	.	.	.	.	.	.
!LO:LB:g=original	!	!	!	!	!	!	!	!	!	!	!	!	!
=47	=47	=47	=47	=47	=47	=47	=47	=47	=47	=47	=47	=47	=47
!	!	!	!LO:TX:t=P:problem=mixed beam	!	!LO:TX:t=P:problem=mixed beam	!	!	!	!	!	!	!	!
8r	.	.	8c#/L	.	8c#/L	.	1ryy	1ryy	1ryy	1ryy	8r	.	8r
8c#\L	6 5	.	(8gg\	.	(8gg\	.	.	.	.	.	8a/L	.	8ee\L
8d\	.	.	8ff#\	.	8ff#\	.	.	.	.	.	8dd/	.	8ff#\
8G\J	.	.	8ee\J)	.	8ee\J)	.	.	.	.	.	8ee/J	.	8gg\J
4A\	6 4:5	.	4dd\	.	4dd\	.	.	.	.	.	4dd\	.	4ff#\
!	!	!	!	!	!	!	!	!	!	!	!LO:MO:mod=4aM	!	!
4AA/	.	.	4eeM\	.	4eeM\	.	.	.	.	.	4a/	.	4eeM\
!	!	!	!	!	!LO:LB:g=original	!	!	!	!	!	!	!	!
=48	=48	=48	=48	=48	=48	=48	=48	=48	=48	=48	=48	=48	=48
4D\	.	.	4d/ 4ff# 4ddd	.	4d/ 4ff# 4ddd	.	1ryy	1ryy	1ryy	1ryy	4f#/	.	4dd\
4r	.	.	16aa\LL	.	16aa\LL	.	.	.	.	.	4r	.	4r
.	.	.	16gg\	.	16gg\	.	.	.	.	.	.	.	.
.	.	.	16ff#\	.	16ff#\	.	.	.	.	.	.	.	.
.	.	.	16ee\JJ	.	16ee\JJ	.	.	.	.	.	.	.	.
4d|>\	.	.	4dd\	.	4dd\	.	.	.	.	.	4dd\	.	4dd\
16A|>\LL	.	.	16a/LL	.	16a/LL	.	.	.	.	.	8a/L	.	4a/
16G|>\	.	.	16g/	.	16g/	.	.	.	.	.	.	.	.
16F#|>\	.	.	16f#/	.	16f#/	.	.	.	.	.	8f#/J	.	.
16E|>\JJ	.	.	16e/JJ	.	16e/JJ	.	.	.	.	.	.	.	.
!	!	!	!	!	!	!	!	!	!	!	!	!	!LO:LB:g=original
=49	=49	=49	=49	=49	=49	=49	=49	=49	=49	=49	=49	=49	=49
*	*	*	*	*	*^	*	*	*	*	*	*	*	*
!	!	!	!	!	!LO:TX:t=P:problem=mixed beam	!	!	!	!	!	!	!	!	!
8D\L	.	.	8d/L	.	8ryy	8d/L	.	1ryy	1ryy	1ryy	1ryy	8d/L	.	8f#/L
8D\	.	.	8d/ 8a 8ff#	.	8ff#/L	8dd\	.	.	.	.	.	16d/L	.	16f#/L
.	.	.	.	.	.	.	.	.	.	.	.	16d/JJ	.	16f#/JJ
8D\	.	.	8d/ 8a 8ff#	.	8ff#/	8dd\	.	.	.	.	.	8d/L	.	8f#/L
8D\J	.	.	8d/J 8a 8ff#	.	8ff#/J	8dd\J	.	.	.	.	.	8d/J	.	8f#/J
4D\	.	.	4d/ 4a 4ff#	.	4ff#/	4d/ 4a	.	.	.	.	.	4d/	.	4f#/
4r	.	.	4r	.	4ryy	4r	.	.	.	.	.	4r	.	4r
*	*	*	*	*	*v	*v	*	*	*	*	*	*	*	*
!LO:LB:g=original	!	!	!LO:LB:g=original	!	!	!	!	!	!	!	!	!	!
==	==	==	==	==	==	==	==	==	==	==	==	==	==
*-	*-	*-	*-	*-	*-	*-	*-	*-	*-	*-	*-	*-	*-
!!!system-decoration: [(s1,s2)][(s3,s4,s5,s6)][(s7,s8)]s9
!!!RDF**kern: < = below
!!!RDF**kern: > = above
!!!RDF**kern: | = vertical stroke
!!!filter-modern: sic -sq | autostem -r | tie -si | shed -e "s/LO:DY:(a|b|rj)/LO:dy:$1/L" | shed -k -e "s/([\(\)\[\]_])[><]/$1/g" | shed -e "s/TX(.*):t=P:/tx$1:t=P:/LG" | shed -e "s/^(\d+[\/\\]right)/$1yy/I; s/^(\d+[\/\\]left)/$1yy/I" | modori -m
!!!ENC: Berenika Jozajtis
!!!END: 2020-12-28
!!!ENC: Marta Chmielewska
!!!END: 2022-01-10
!!!ENC-modern: Leszek Kubiak
!!!END-modern: 2023-08-29
